www/assets/icons/airplanemode_inactive.svg

<svg width="24" height="24" viewBox="0 0 24 24" xmlns="http://www.w3.org/2000/svg" fill='currentColor'><path d="M10.805 7.36501V3.19501C10.805 2.36501 11.475 1.69501 12.305 1.69501C13.135 1.69501 13.805 2.36501 13.805 3.19501V8.69501L22.305 13.695V15.695L17.815 14.375L10.805 7.36501ZM20.085 22.305L21.495 20.895L3.11501 2.50501L1.69501 3.91501L8.07501 10.295L2.30501 13.695V15.695L10.805 13.195V18.695L8.30501 20.195V21.695L12.305 20.695L16.305 21.695V20.195L13.805 18.695V16.025L20.085 22.305Z"/></svg>

<svg xmlns="http://www.w3.org/2000/svg" width="24" height="24" viewBox="0 0 24 24" fill='currentColor'><path d="M10.805 7.365v-4.17c0-.83.67-1.5 1.5-1.5s1.5.67 1.5 1.5v5.5l8.5 5v2l-4.49-1.32zm9.28 14.94 1.41-1.41-18.38-18.39-1.42 1.41 6.38 6.38-5.77 3.4v2l8.5-2.5v5.5l-2.5 1.5v1.5l4-1 4 1v-1.5l-2.5-1.5v-2.67z"/></svg>
